X: 30862
T: COTILLION No. 5. ST. LOUIS SETT tune 2
%R: jig
B: Elias Howe "The Musician's Companion" Part 3 1844 p.86 #2
S: http://imslp.org/wiki/The_Musician's_Companion_(Howe,_Elias)
Z: 2015 John Chambers <jc:trillian.mit.edu>
M: 6/8
L: 1/8
K: C
% - - - - - - - - - - - - - - - - - - - - - - - - - - - - -
B |\
e2e d2d | c3 zzG | g2g f2f | e3 zg2 |\
c'3 e'd'c' | bag fed | c2c e2e | (d3 c2) H|]
d/e/ |\
f3 fdB | c2e g2g | ^f2a a2f | g2b d'2d |\
f3 fdB | c2e g2g | ^fc'b agf | g3- "^D.C."g2 |]
% - - - - - - - - - - Dance description - - - - - - - - - -
%%begintext align
%% First 2 forward and back,
%% cross over,
%% chassa de chassa,
%% cross back,
%% balance partners and turn.
%% The others the same.
%%endtext
% - - - - - - - - - - - - - - - - - - - - - - - - - - - - -
%%sep 1 1 300
